src/icons/services/seo.svg

<svg width="52" height="42" viewBox="0 0 52 42" fill="none" xmlns="http://www.w3.org/2000/svg">
<path d="M46.3126 0.362549H5.6876C2.9251 0.362549 0.568848 2.63755 0.568848 5.4813V26.9313C0.568848 29.6938 2.84385 32.05 5.6876 32.05H24.2126V38.0625H15.2751C14.3001 38.0625 13.4063 38.875 13.4063 39.9313C13.4063 40.9875 14.2188 41.8 15.2751 41.8H36.7251C37.7001 41.8 38.5938 40.9875 38.5938 39.9313C38.5938 38.875 37.7813 38.0625 36.7251 38.0625H27.8688V32.05H46.3126C49.0751 32.05 51.4313 29.775 51.4313 26.9313V5.40005C51.4313 2.63755 49.0751 0.362549 46.3126 0.362549ZM47.7751 26.85C47.7751 27.6625 47.1251 28.3125 46.3126 28.3125H5.6876C4.8751 28.3125 4.2251 27.6625 4.2251 26.85V5.40005C4.2251 4.58755 4.8751 3.93755 5.6876 3.93755H46.3126C47.1251 3.93755 47.7751 4.58755 47.7751 5.40005V26.85Z" fill="#9D74D3"/>
<path d="M13.0812 11.5751H16.3312C17.3062 11.5751 18.1999 10.7626 18.1999 9.7064C18.1999 8.65015 17.3874 7.83765 16.3312 7.83765H13.0812C10.3187 7.83765 8.04365 10.1126 8.04365 12.8751C8.04365 15.6376 10.3187 17.9126 13.0812 17.9126C13.8124 17.9126 14.4624 18.5626 14.4624 19.2939C14.4624 20.0251 13.8124 20.6751 13.0812 20.6751H9.83115C8.85615 20.6751 7.9624 21.4876 7.9624 22.5439C7.9624 23.5189 8.7749 24.4126 9.83115 24.4126H13.0812C15.8437 24.4126 18.1187 22.1376 18.1187 19.3751C18.1187 16.6126 15.8437 14.3376 13.0812 14.3376C12.3499 14.3376 11.6999 13.6876 11.6999 12.9564C11.6999 12.2251 12.3499 11.5751 13.0812 11.5751Z" fill="#9D74D3"/>
<path d="M25.9188 11.5751H29.1688C30.1438 11.5751 31.0376 10.7626 31.0376 9.7064C31.0376 8.65015 30.2251 7.83765 29.1688 7.83765H25.9188C23.1563 7.83765 20.8813 10.1126 20.8813 12.8751V19.3751C20.8813 22.1376 23.1563 24.4126 25.9188 24.4126H29.1688C30.1438 24.4126 31.0376 23.6001 31.0376 22.5439C31.0376 21.5689 30.2251 20.6751 29.1688 20.6751H25.9188C25.1876 20.6751 24.5376 20.0251 24.5376 19.2939V17.9126H29.1688C30.1438 17.9126 31.0376 17.1001 31.0376 16.0439C31.0376 14.9876 30.2251 14.1751 29.1688 14.1751H24.5376V12.7939C24.5376 12.1439 25.1876 11.5751 25.9188 11.5751Z" fill="#9D74D3"/>
<path d="M39.7313 7.9187H37.8625C35.5875 7.9187 33.7188 9.78745 33.7188 12.0625V20.35C33.7188 22.625 35.5875 24.4937 37.8625 24.4937H39.7313C42.0063 24.4937 43.875 22.625 43.875 20.35V11.9812C43.7937 9.7062 42.0063 7.9187 39.7313 7.9187ZM40.1375 20.2687C40.1375 20.5125 39.8937 20.7562 39.65 20.7562H37.7812C37.5375 20.7562 37.2938 20.5125 37.2938 20.2687V11.9812C37.2938 11.7375 37.5375 11.4937 37.7812 11.4937H39.65C39.8937 11.4937 40.1375 11.7375 40.1375 11.9812V20.2687Z" fill="#9D74D3"/>
</svg>

<svg xmlns="http://www.w3.org/2000/svg" width="52" height="42" fill="#9d74d3"  ><path d="M46.313.363H5.688C2.925.363.569 2.638.569 5.481v21.45c0 2.762 2.275 5.119 5.119 5.119h18.525v6.013h-8.937c-.975 0-1.869.813-1.869 1.869s.813 1.869 1.869 1.869h21.45c.975 0 1.869-.812 1.869-1.869s-.812-1.869-1.869-1.869H27.87V32.05h18.444c2.762 0 5.119-2.275 5.119-5.119V5.4c0-2.762-2.356-5.038-5.119-5.038zm1.462 26.487c0 .813-.65 1.462-1.462 1.462H5.688c-.812 0-1.462-.65-1.462-1.462V5.4c0-.812.65-1.463 1.462-1.463h40.625c.813 0 1.462.65 1.462 1.463v21.45zM13.081 11.575h3.25c.975 0 1.869-.812 1.869-1.869s-.812-1.869-1.869-1.869h-3.25c-2.763 0-5.038 2.275-5.038 5.037s2.275 5.038 5.038 5.038c.731 0 1.381.65 1.381 1.381s-.65 1.381-1.381 1.381h-3.25c-.975 0-1.869.813-1.869 1.869 0 .975.813 1.869 1.869 1.869h3.25c2.762 0 5.038-2.275 5.038-5.038s-2.275-5.037-5.037-5.037c-.731 0-1.381-.65-1.381-1.381s.65-1.381 1.381-1.381zm12.838 0h3.25c.975 0 1.869-.812 1.869-1.869s-.812-1.869-1.869-1.869h-3.25c-2.762 0-5.038 2.275-5.038 5.037v6.5c0 2.762 2.275 5.038 5.038 5.038h3.25c.975 0 1.869-.812 1.869-1.869 0-.975-.812-1.869-1.869-1.869h-3.25c-.731 0-1.381-.65-1.381-1.381v-1.381h4.631c.975 0 1.869-.812 1.869-1.869s-.812-1.869-1.869-1.869h-4.631v-1.381c0-.65.65-1.219 1.381-1.219zm13.812-3.656h-1.869c-2.275 0-4.144 1.869-4.144 4.144v8.288c0 2.275 1.869 4.144 4.144 4.144h1.869c2.275 0 4.144-1.869 4.144-4.144v-8.369c-.081-2.275-1.869-4.062-4.144-4.062zm.406 12.35c0 .244-.244.488-.488.488H37.78c-.244 0-.487-.244-.487-.488v-8.287c0-.244.244-.487.487-.487h1.869c.244 0 .488.244.488.487v8.288z"/></svg>
